X:1
T:Sing Away the Shadows
T:Charles Hutchinson Gabriel
T:Sing Away the Shadows
T:Public Domain
T:Public Domain
C:Charles Hutchinson Gabriel
Z:Public Domain
%%score ( 1 2 ) ( 3 4 )
L:1/8
M:4/4
K:Bb
V:1 treble 
V:2 treble 
V:3 bass 
V:4 bass 
V:1
 [DF]>[DG] [DF]>[DG] [DF]>D [Fd]>[^Fc] | [GB]2 [EG]2 [DF]4 | [EF]>[EG] [EA]>[EG] [EF]2 [Ec]2 | %3
w: 1.~Sing a- way the sha- dows, Flitt- ing|the sky; Sing|of star- ry com- forts, In|
w: 2.~Sing a- way the sha- dows, Anx- ious|and fear; Sing|the Sav- ior’s prom- ise, Bring-|
w: 3.~Sing a- way the sha- dows, Self- ish|may be; Love’s|own hap- py mu- sic Brings|
 [DB]>[EA] [FB]>[Fc] [Fd]4 | [DF]>[DG] [DF]>[DG] [DF]>D [Fd]>[^Fc] | [GB]2 [EG]2 [DF]4 | %6
w: the by and by! Sing|of love un- fail- ing, Mer- cies ev-|new; Par- don,|
w: ing sweet- est cheer: Trust|the heav’n- ly Fa- ther, He for you|care More than|
w: the light so free, Lift|an- oth- er’s bur- den, Soothe an- oth-|woe, Shar- ing|
 [EF]>[EG] [EA]>[EG] [EF]>[Fe] [Fd]>[Gc] | [FB]2 [EA]2 [DB]4 || %8
w: peace and bless- ing, Guid- ance kind and|true. * *|
w: for the spar- rows, Or the lil- ies|fair. Sing a-|
w: with your neigh- bor, Joy’s re- turn- ing|glow. * *|
"^Refrain" [GB]>[^FA] [GB]2 [Ge]>[Fd] [Ge]2 | [EG]>[DF] [FB]>[Fc] [Fd]4 | %10
w: ||
w: way, sing a- way, Hope- ful|be the lay; Sing a-|
w: ||
 [Fd]>[Fc] [Fc]>[F=B] [Fc]>[Fd] [Fe]>[FA] | [Ec]2 [DB]2 [Fd]4 | [GB]>[^FA] [GB]2 [Ge]>[Fd] [Ge]2 | %13
w: |||
w: way the sha- dows, Flitt- ing o’er the|sky; Sing a-|way, sing a- way, Trust- ing|
w: |||
 [EG]>[DF] [FB]>[Fc] [Fd]4 | [Fd]>[Fc] [Fc]>[F=B] [Fc]>[Fd] [Fe]>[FA] | [Ec]2 [DB]2 [DB]4 |] %16
w: |||
w: ev- ’ry day; Sing of|star- ry com- forts In the by and|by. * *|
w: |||
V:2
 x11/2 D/ x2 | x8 | x8 | x8 | x11/2 D/ x2 | x8 | x8 | x8 || x8 | x8 | x8 | x8 | x8 | x8 | x8 | %15
w: o’er||||er|||||||||||
w: doubt||||will|||||||||||
w: they||||er’s|||||||||||
 x8 |] %16
w: |
w: |
w: |
V:3
 [B,,B,]>[B,,B,] [B,,B,]>[B,,B,] [B,,B,]>[B,,F,] [B,,B,]>[D,B,] | [E,B,]2 [E,B,]2 [B,,B,]4 | %2
 [C,A,]>[C,B,] [F,C]>[G,C] [A,C]2 [F,A,]2 | B,>[F,C] [D,B,]>[F,A,] B,4 | %4
 [B,,B,]>[B,,B,] [B,,B,]>[B,,B,] [B,,B,]>[B,,F,] [B,,B,]>[D,B,] | [E,B,]2 [E,B,]2 [B,,B,]4 | %6
 [C,A,]>[C,B,] [F,C]>[G,C] [A,C]>[A,C] B,>[E,E] | [F,D]2 [F,C]2 [B,,B,]4 || %8
 [E,B,]>[E,B,] [E,E]2 [E,B,]>[E,B,] [E,B,]2 | [B,,B,]>[B,,B,] [D,B,]>[F,A,] B,4 | %10
 [F,B,]>[F,A,] [F,A,]>[F,^G,] [F,A,]>[F,B,] [F,C]>[F,C] | [B,,B,]2 [B,,B,]2 [B,,B,]4 | %12
 [E,B,]>[E,B,] [E,E]2 [E,B,]>[E,B,] [E,B,]2 | [B,,B,]>[B,,B,] [D,B,]>[F,A,] B,4 | %14
 [F,B,]>[F,A,] [F,A,]>[F,G,] [F,A,]>[F,B,] [F,C]>[F,C] | [B,,B,]2 [B,,F,]2 [B,,F,]4 |] %16
V:4
 x8 | x8 | x8 | B,3/2 x B,4 x3/2 | x8 | x8 | x6 B,3/2 x/ | x8 || x8 | x4 B,4 | x8 | x8 | x8 | %13
 x4 B,4 | x8 | x8 |] %16

